X: 6
T: The Laurel Tree
R: reel
M: 4/4
L: 1/8
K: Ador
eA ~A2 e2dc|BGGA Bcdg|eA ~A2 e2dc|BAGA BAA2|eA ~A2 e2dc|BGGA Bcdg|~e3f ~g3a|gedB BAA2:|eaag egdc|BGGA Bcdg|eaag egdc|BAGA BAA2|eaag egdc|BGGA Bcdg|~e3f ~g3a|gedB BAA2|eaag egdc|BGGA Bcdg|eaag a2 ga|bagb a2ag|eaag egdc|BGGA Bcdg|~e3f ~g3a|gedB BAA2||


Tune 883	Setting 883

